X:1
T:title
T:Invention No. 14 in A minor
T:thezukinimethod.wordpress.com
C:composer
Z:lyricist
%%score { 1 | 2 }
L:1/8
Q:1/4=60
M:4/4
K:C
V:1 treble nm="Piano"
V:2 bass 
V:1
"Am" z/ E/A/c/ B/"E7"E/B/d/"Am" ce"E7"^Ge |"Am" A/E/A/c/"E7" B/E/B/d/"Am" cA z2 | %2
"Am" z/ e/c/e/ A/c/E/G/"Dm" FAdf- |"G7/B" f/d/B/d/ G/B/D/F/"C" EGce- | %4
"Am" e/c/A/c/"Dm" F"Bdim"d-"G7" d/B/G/B/"C" E"Am"c- |"F" c/A/"Dm"F/A/"G7" DB"C" .c2 z2 | %6
"C" z/ G/c/e/"G7" d/G/d/f/"C" eg"G7"Bg |"C" c/G/c/e/"G7" d/G/d/f/"C" ecge | %8
"Am" c'/a/e/a/ c/e/A/c/"D7" d^fac' |"G" b/g/d/g/ B/d/G/B/"C" cegb | %10
"C__" a/^f/_e/f/"C__" B/e/^F/A/"C__" Gg-"C__" g/=e/c/e/ |"C__" A^f- f/d/B/d/"C__" Ge- e/c/A/c/ | %12
"C__" ^F/g/^f/e/ _e/f/B/e/"C__" .=e2 z2 |"Edim" z/ g/_b/g/ e/g/^c/e/"A7""C#dim" g/e/c/e/ .A2 | %14
"Ddim" z/ f/a/f/ d/f/B/d/"Bdim" f/d/B/d/ .G2 |"Cdim" z/ e/g/e/ c/e/A/c/"Adim" _e/c/A/c/ .^F2 | %16
"Bdim" z/ d/f/d/ B/d/^G/B/"G#dim""E7" d/B/G/B/ .E2 |"Am" z/ E/A/c/"E7" B/E/B/d/"Am" cA"E7"^GE | %18
"Am" A/c/e/c/"Adim" A/c/^F/A/"F#dim" c/A/F/A/"C__" _E/c/B/A/ | %19
"E7" ^G/B/d/B/ G/B/D/F/"C__" G/F/D/F/"C__" B,/F/E/D/ | %20
"Am" C/E/A/E/ C/E/A,/C/"Adim" _E/C/A,/C/ ^F,/C/B,/A,/ |"E7" ^G,B^GE"Am" z/ E/A/c/"E7" B/E/B/d/ | %22
 c/A/c/e/ d/B/d/f/ e/c/e/g/ f/e/d/c/ | B/c/d/e/ f/d/^g/d/ b/d/c/a/ f/d/B/d/ | %24
 ^G/B/c/A/ E/A/B/G/ A/E/C/E/ A,2- | A,4 z4 |] %26
V:2
 A,, A,2 ^G, A,/E,/A,/C/ B,/E,/B,/D/ | CA,^G,E, A,/E,/A,/C/ B,/E,/B,/D/ | %2
 CA,CA, D/A,/F,/A,/ D,/F,/A,,/C,/ | B,,D,G,B,- B,/G,/E,/G,/ C,/E,/G,,/B,,/ | %4
 A,,C, D,/F,/B,,/D,/ G,,B,, C,/E,/A,,/C,/ | F,,D,, G,,/G,/F,/G,/ C,/G,/C/E/ D/G,/D/F/ | %6
 ECB,G, C/G,/C/E/ D/G,/D/F/ | EC z2 z/ G/E/G/ C/E/[K:bass]G,/B,/ | A,CEG ^F/A/D/F/ A,/D/^F,/A,/ | %9
 G,B,D^F E/G/C/E/ G,/C/E,/G,/ | ^F,A,B,[K:treble]_E z/ =E/C/E/ A,/C/E/G/ | %11
 ^F/D/B,/D/ G,/B,/D/F/ E/C/A,/C/[K:bass] ^F,/A,/C- | C/B,/C/A,/ B,B,, E,/E/B,/G,/ E,/B,,/G,,/B,,/ | %13
 E,,E,G,_B, .^C,2 z/ G/^F/E/ | DD,F,^G, .B,,2 z/ F/E/D/ | CC,E,^F, .A,,2 z/ E/_E/^C/ | %16
 B,B,,D,F, .^G,,2 z/ D/C/B,/ | CA,^G,E, A,/E,/A,/C/ B,/E,/B,/D/ | %18
 C/E/A/E/ C/E/A,/C/ ^F,/A,/C/A,/ F,/A,/_E,/F,/ | E,^G,B,G, E,B,,^G,,E,, | A,,C,E,C, A,,C, ._E,,2 | %21
 z/ B,/^G,/E,/ D,/B,/G,/D,/ C,E,^G,,E, | A,,^F,B,,^G, C,A,D,_B, | ^G,F,D,B,, ^G,,A,,D,,E,, | %24
 F,,_E,,=E,,E, A,,4- | A,,4 z4 |] %26

